public/images/user.svg

<svg width="21" height="21" viewBox="0 0 21 21" fill="none" xmlns="http://www.w3.org/2000/svg">
<path d="M10.5 1.75C5.75663 1.75 1.75 5.75663 1.75 10.5C1.75 15.2434 5.75663 19.25 10.5 19.25C15.2434 19.25 19.25 15.2434 19.25 10.5C19.25 5.75663 15.2434 1.75 10.5 1.75ZM10.5 6.125C12.0111 6.125 13.125 7.238 13.125 8.75C13.125 10.262 12.0111 11.375 10.5 11.375C8.98975 11.375 7.875 10.262 7.875 8.75C7.875 7.238 8.98975 6.125 10.5 6.125ZM6.03225 14.6755C6.81712 13.5205 8.12612 12.7505 9.625 12.7505H11.375C12.8748 12.7505 14.1829 13.5205 14.9678 14.6755C13.8495 15.8725 12.2631 16.625 10.5 16.625C8.73688 16.625 7.1505 15.8725 6.03225 14.6755Z" fill="#764AF1"/>
</svg>

<svg xmlns="http://www.w3.org/2000/svg" width="21" height="21" fill="none"><path fill="#764AF1" d="M10.5 1.75c-4.743 0-8.75 4.007-8.75 8.75s4.007 8.75 8.75 8.75 8.75-4.007 8.75-8.75-4.007-8.75-8.75-8.75Zm0 4.375c1.511 0 2.625 1.113 2.625 2.625s-1.114 2.625-2.625 2.625c-1.51 0-2.625-1.113-2.625-2.625S8.99 6.125 10.5 6.125Zm-4.468 8.55c.785-1.155 2.094-1.925 3.593-1.925h1.75c1.5 0 2.808.77 3.593 1.925a6.098 6.098 0 0 1-4.468 1.95 6.098 6.098 0 0 1-4.468-1.95Z"/></svg>
